X: 370
T: Paddy O' Boderam
%R: jig
Q: "Expressivo"
Z: 2014 John Chambers <jc:trillian.mit.edu>
B: Preston "Twenty four Country Dances for the Year 1799" p.165 #2
F: http://www.vwml.org/browse/browse-collections-dance-tune-books/browse-prestons1799# 2014-8-10
M: 6/8
L: 1/8
K: G
(e/f/) |\
g2d d2d | B2G G2G | !p!DGG FAA | GBB B2(e/f/) |\
!f!g2d d2d | B2G G2G | !p!DGG FAA | GGF G2 :|
|: d |\
!f!A2d B2d | cBc A2d | !p!edc BAG | d3- d2d |\
!f!gfe dcB | e2A A2e | !p!dBG AGA | G3 z2 :|
% - - - - - - - - - - - - - - - - - - - - - - - - -
%%begintext align
%% 1st Lady figure thro' between the 1st & 2d Gent:n
%% round to her place, 1st Gent figure thro' betwen
%% the 1st & 2d Lady round to his place; 1st Couple
%% Promenade down the middle, and up again,
%% and cast of one Cu:
%%endtext
% - - - - - - - - - - - - - - - - - - - - - - - - -

%%sep 1 1 500
%%sep 1 1 500
